icons/arrow-circle-topleft.svg

<svg width="24" height="24" viewBox="0 0 24 24" fill="none" xmlns="http://www.w3.org/2000/svg">
<path fill-rule="evenodd" clip-rule="evenodd" d="M12 20.25C16.5563 20.25 20.25 16.5563 20.25 12C20.25 7.44365 16.5564 3.75 12 3.75C7.44365 3.75 3.75 7.44365 3.75 12C3.75 16.5563 7.44365 20.25 12 20.25ZM21.75 12C21.75 17.3848 17.3848 21.75 12 21.75C6.61522 21.75 2.25 17.3848 2.25 12C2.25 6.61522 6.61523 2.25 12 2.25C17.3848 2.25 21.75 6.61522 21.75 12Z" fill="black"/>
<path fill-rule="evenodd" clip-rule="evenodd" d="M14.6625 14.9254C14.3696 15.2183 13.8948 15.2183 13.6019 14.9254L8.93497 10.2585C8.64207 9.96556 8.64207 9.49069 8.93497 9.19779C9.22786 8.9049 9.70273 8.9049 9.99563 9.19779L14.6625 13.8647C14.9554 14.1576 14.9554 14.6325 14.6625 14.9254Z" fill="black"/>
<path fill-rule="evenodd" clip-rule="evenodd" d="M9.18243 14.438C8.76822 14.438 8.43243 14.1022 8.43243 13.688L8.43243 10.1525C8.43243 9.45541 8.98035 8.90749 9.67741 8.90749L13.2129 8.90749C13.6272 8.90749 13.9629 9.24328 13.9629 9.65749C13.9629 10.0717 13.6272 10.4075 13.2129 10.4075L9.93243 10.4075L9.93243 13.688C9.93243 14.1022 9.59665 14.438 9.18243 14.438Z" fill="black"/>
</svg>

<svg xmlns="http://www.w3.org/2000/svg" fill="none" viewBox="0 0 24 24">
  <path fill="#000" fill-rule="evenodd" d="M12 20.25a8.25 8.25 0 1 0 0-16.5 8.25 8.25 0 0 0 0 16.5ZM21.75 12c0 5.385-4.365 9.75-9.75 9.75S2.25 17.385 2.25 12 6.615 2.25 12 2.25s9.75 4.365 9.75 9.75Z" clip-rule="evenodd"/>
  <path fill="#000" fill-rule="evenodd" d="M14.662 14.925a.75.75 0 0 1-1.06 0l-4.667-4.667a.75.75 0 0 1 1.06-1.06l4.668 4.667a.75.75 0 0 1 0 1.06Z" clip-rule="evenodd"/>
  <path fill="#000" fill-rule="evenodd" d="M9.182 14.438a.75.75 0 0 1-.75-.75v-3.536c0-.697.548-1.245 1.245-1.245h3.536a.75.75 0 1 1 0 1.5h-3.28v3.281a.75.75 0 0 1-.75.75Z" clip-rule="evenodd"/>
</svg>
